assets/icons/qvision/not_accessible.svg

<svg xmlns="http://www.w3.org/2000/svg" enable-background="new 0 0 24 24" height="24" viewBox="0 0 24 24" width="24"><g><rect fill="none" height="24" width="24"/><path d="M14,11.05l-3.42-3.42c0.32-0.34,0.74-0.57,1.23-0.61c0.48-0.04,0.84,0.07,1.2,0.26c0.19,0.1,0.39,0.22,0.63,0.46l1.29,1.43 c0.98,1.08,2.53,1.85,4.07,1.83v2C17.25,12.99,15.29,12.12,14,11.05z M12,6c1.1,0,2-0.9,2-2s-0.9-2-2-2c-1.1,0-2,0.9-2,2 S10.9,6,12,6z M2.81,2.81L1.39,4.22L10,12.83V15c0,1.1,0.9,2,2,2h2.17l5.61,5.61l1.41-1.41L2.81,2.81z M10,20c-1.66,0-3-1.34-3-3 c0-1.31,0.84-2.41,2-2.83V12.1c-2.28,0.46-4,2.48-4,4.9c0,2.76,2.24,5,5,5c2.42,0,4.44-1.72,4.9-4h-2.07 C12.42,19.16,11.31,20,10,20z"/></g></svg>

<svg width="24" height="24" viewBox="0 0 24 24" fill="none" xmlns="http://www.w3.org/2000/svg">
<g clip-path="url(#clip0_147_4449)">
<path d="M14 11.05L10.58 7.63C10.9 7.29 11.32 7.06 11.81 7.02C12.29 6.98 12.65 7.09 13.01 7.28C13.2 7.38 13.4 7.5 13.64 7.74L14.93 9.17C15.91 10.25 17.46 11.02 19 11V13C17.25 12.99 15.29 12.12 14 11.05ZM12 6C13.1 6 14 5.1 14 4C14 2.9 13.1 2 12 2C10.9 2 10 2.9 10 4C10 5.1 10.9 6 12 6ZM2.81 2.81L1.39 4.22L10 12.83V15C10 16.1 10.9 17 12 17H14.17L19.78 22.61L21.19 21.2L2.81 2.81ZM10 20C8.34 20 7 18.66 7 17C7 15.69 7.84 14.59 9 14.17V12.1C6.72 12.56 5 14.58 5 17C5 19.76 7.24 22 10 22C12.42 22 14.44 20.28 14.9 18H12.83C12.42 19.16 11.31 20 10 20Z" fill="#323232"/>
</g>
<defs>
<clipPath id="clip0_147_4449">
<rect width="24" height="24" fill="white"/>
</clipPath>
</defs>
</svg>
